!!!!SEGMENT: pl-kk--kk-i-7--053-002_goudimel-claude-missa-de-sanctis-martyribus-et-in-terra.krn
!!!id: 16xx:876
!!!COM: Goudimel, Claude
!!!OTL: Missa de Sanctis Martyribus – Et in terra
!!!PDT:
!!!SMS-siglum: PL-Kk
!!!SMS-shelfmark: Kk.I.7
!!!NIFC-rismID: 300258130
!!!URL-scan: http://repozytorium.nifc.pl/skany/pl-kk-nut--i-7
!!!ONB-nifc: UWAGA: C (skan 0050-0051, s.93-95), A (0134-0135, s.88-90), T(0210-0211, s.83-85), B(0298-0299, s.82-84). Części Mszy: 1. Kyrie, 2. Et in terra, 3. Sanctus, 4. Agnus Dei. "Agnus II" rozpisane na 5 głosów. Głos dodatkowy rozpisany w księdze C na stronie 95.
!!!SMS-variant:
!!!SMS-altvar:
**kern	**text	**dynam	**kern	**text	**kern	**text	**kern	**text
*part4	*part4	*part4	*part3	*part3	*part2	*part2	*part1	*part1
*staff4	*staff4	*	*staff3	*staff3	*staff2	*staff2	*staff1	*staff1
*I"BASSVS.	*	*	*I"TENOR.	*	*I"ALTVS.	*	*I"CANTVS.	*
*I'B	*	*	*I'T	*	*I'A	*	*I'S	*
*clefF4	*	*	*clefC4	*	*clefC3	*	*clefC1	*
*k[b-]	*	*	*k[b-]	*	*k[b-]	*	*k[b-]	*
*M2/1	*	*	*M2/1	*	*M2/1	*	*M2/1	*
*met(c|)	*	*	*met(c|)	*	*met(c|)	*	*met(c|)	*
=1	=1	=1	=1	=1	=1	=1	=1	=1
!LO:TX:t=P:problem:przy kluczu BB- B-	!	!	!	!	!	!	!	!
1.G\	Et	.	1.G/	Et	1.d\	Et	1.g\	Et
*2\right	*	*	*	*	*2\right	*	*	*
2G\	in	.	2G/	in	2d\	in	2g/	in
=2-	=2-	=2-	=2-	=2-	=2-	=2-	=2-	=2-
*	*	*	*2\right	*	*	*	*	*
2G\	ter-	.	2B-\	ter-	2d\	ter-	2g/	ter-
!	!	!	!LO:TX:t=P:problem:kreska pseudotaktowa	!	!LO:TX:t=P:problem:kreska pseudotaktowa	!	!LO:TX:t=P:problem:kreska pseudotaktowa	!
2GG/	-ra	.	2B-\	-ra	2d\	-ra	2g/	-ra
1.D\	pax	.	2A\	pax	1d\	pax	2f/	pax
.	.	.	4F/	ho-	.	.	4d/	ho-
.	.	.	4G/	.	.	.	4e/	.
=3-	=3-	=3-	=3-	=3-	=3-	=3-	=3-	=3-
.	.	.	4A/	.	2d\	ho-	4f/	.
.	.	.	4B-/	.	.	.	4g/	.
*	*	*	*	*	*	*	*2\right	*
2C/	ho-	.	2c\	.	1e-X\	-mi-	2.a\	.
2.E\	-mi-	.	2B-\	.	.	.	.	.
.	.	.	.	.	.	.	4g/	.
.	.	.	4A/	.	2c\	-ni-	1g\	-mi-
4E\	-ni-	.	4G/	.	.	.	.	.
=4-	=4-	=4-	=4-	=4-	=4-	=4-	=4-	=4-
!LO:TX:t=P:problem:kreska pseudotaktowa	!	!	!	!	!LO:TX:t=P:problem:kreska pseudotaktowa	!	!	!
1D\	-b(us)	.	2A\	mi-	1d\	-b(us)	.	.
!	!	!	!	!	!	!	!LO:TX:t=P:problem:♯above	!
!	!	!	!LO:TX:t=P:problem:kreska pseudotaktowa	!	!	!	!LO:TX:t=P:problem:kreska pseudotaktowa	!
.	.	.	2A\	-ni-	.	.	2f#X/	-ni-
!	!	!	!	!	!	!	!LO:TX:t=P:problem:rozdzielacz słów:global	!
2r	.	.	2G/	-b(us)	2r	.	2g,<\	-b(us)
2G\	bo-	.	2B-\	bo-	2d\	bo-	2g\	bo-
=5-	=5-	=5-	=5-	=5-	=5-	=5-	=5-	=5-
2F\	-nae	.	2c\	-nae	2f\	-nae	2a\	-nae
2BB-/	Vo-	.	2d\	Vo-	2f\	Vo-	2b-\	vo-
2C/	-lun-	.	2c\	-lun-	2en\	-lun-	2g/	-lun-
2C/	-ta-	.	2c\	-ta-	2e\	-ta-	2g/	-ta-
=6-	=6-	=6-	=6-	=6-	=6-	=6-	=6-	=6-
!LO:TX:t=P:problem:kreska pseudotaktowa	!	!	!LO:TX:t=P:problem:rozdzielacz słów:global	!	!LO:TX:t=P:problem:rozdzielacz słów:global	!	!LO:TX:t=P:problem:kreska pseudotaktowa	!
1D\	-tis	.	2A,</	-tis	2d,<\	-tis	1fn/	-tis
.	.	.	2F/	Lau-	2A/	Lau-	.	.
2r	.	.	2B-\	-da-	2d\	-da-	2re	.
!	!	!	!LO:TX:t=P:problem:kreska pseudotaktowa	!	!LO:TX:t=P:problem:kreska pseudotaktowa	!	!	!
2BB-/	Lau-	.	2B-\	-m(us)	2d\	-m(us)	2f/	Lau-
=7-	=7-	=7-	=7-	=7-	=7-	=7-	=7-	=7-
2E-X\	-da-	.	4G/	Te	4B-/	Te	2g/	-da-
.	.	.	4F/	.	4A/	.	.	.
2E-\	-m(us)	.	4G/	.	4B-/	.	2g/	-m(us)
.	.	.	4A/	.	4c/	.	.	.
!	!	!	!	!	!LO:TX:t=P:problem:kreska pseudotaktowa	!	!	!
2BB-/	Te	.	2B-,<\	.	1d\,<	.	2f,</	Te
!	!	!	!	!	!	!	!LO:TX:t=P:problem:kreska pseudotaktowa	!
2BB-/	be-	.	2B-\	be-	.	.	2dd\	be-
=8-	=8-	=8-	=8-	=8-	=8-	=8-	=8-	=8-
4BB-/	.	.	2B-\	-ne-	1f\	be-	2dd\	-ne-
4C/	.	.	.	.	.	.	.	.
4D/	.	.	2B-\	-di-	.	.	2dd\	-di-
4E-y/	.	.	.	.	.	.	.	.
2F\	-ne-	.	4A/	-ci-	2f\	-ne-	2.cc\	-ci-
.	.	.	4G/	.	.	.	.	.
2F\	-di-	.	4A/	.	2f\	-di-	.	.
.	.	.	4B-/	.	.	.	4b-\	.
=9-	=9-	=9-	=9-	=9-	=9-	=9-	=9-	=9-
2C/	-ci-	.	4c\	.	2e\	-ci-	4a\	.
.	.	.	4B-\	.	.	.	4g\	.
2E-y\	-m(us)	.	4A\	.	2c\	-m(us)	1g\	.
.	.	.	4G/	.	.	.	.	.
!	!	!	!	!	!LO:TX:t=P:problem:kreska pseudotaktowa	!	!	!
1D\	Te	.	2A/	.	0d\	Te.	.	.
.	.	.	2A/	-m(us)	.	.	2f#X/	-mus
=10-	=10-	=10-	=10-	=10-	=10-	=10-	=10-	=10-
!	!	!	!LO:TX:t=P:problem:kreska pseudotaktowa	!	!	!	!	!
!LO:TX:t=P:problem:kreska pseudotaktowa	!	!	!LO:SIC:v:t=custos d	!	!	!	!LO:TX:t=P:problem:kreska pseudotaktowa	!
1GG/	.	.	1G/	Te	.	.	1g\	Te
!	!	!	!LO:LB:g=original	!	!	!	!	!
2r	.	.	2rc	.	2re	.	2r	.
1G\	a-	.	1d\	a-	1g\	a-	1b-\	a-
=11-	=11-	=11-	=11-	=11-	=11-	=11-	=11-	=11-
!	!	!	!	!	!LO:TX:t=P:problem:kreska pseudotaktowa	!	!	!
2D\	-do-	.	2d\	-do-	2f\	-do-	2a\	-do-
2G\	-ra-	.	2B-\	-ra-	2d\	-ra-	2b-\	-ra-
2Eny\	-m(us)	.	2G/	-m(us)	2g\	-m(us)	2cc\	-m(us)
=12-	=12-	=12-	=12-	=12-	=12-	=12-	=12-	=12-
!	!	!	!	!	!	!	!LO:TX:t=P:problem:kreska pseudotaktowa	!
!LO:TX:t=P:problem:kreska pseudotaktowa	!	!	!	!	!LO:TX:t=P:problem:kreska pseudotaktowa	!	!LO:SIC:v:t=custos dd	!
1D\	Te	.	2A,<\	Te	1f\	Te,	1dd\	Te
.	.	.	2d\	glo-	.	.	.	.
!	!	!	!	!	!LO:PB:g=original	!	!LO:LB:g=original	!
2rBB	.	.	2c\	-ri-	2r	.	2rb	.
2BB-/	glo-	.	2B-\	-fi-	2f\	glo-	2dd\	glo-
=13-	=13-	=13-	=13-	=13-	=13-	=13-	=13-	=13-
!	!	!LO:DY:a:i:t=F.	!	!	!	!	!	!
2F\	-ri-	f	2A\	-ca-	2f\	-ri-	2cc\	-ri-
!LO:SIC:v:t=custos F	!	!	!	!	!	!	!	!
!LO:TX:t=P:problem:kreska pseudotaktowa	!	!	!LO:TX:t=P:problem:kreska pseudotaktowa	!	!	!	!	!
2G\	-fi-	.	2B-\	-m(us)	2d\	-fi-	2b-\	-fi-
!LO:LB:g=original	!	!	!	!	!	!	!LO:TX:t=P:problem:kreska pseudotaktowa	!
2F\	-ca-	.	4c\	Te	1f\	-ca-	1a\	-ca-
.	.	.	4A\	.	.	.	.	.
4E\	.	.	1d\	.	.	.	.	.
4D\	.	.	.	.	.	.	.	.
=14-	=14-	=14-	=14-	=14-	=14-	=14-	=14-	=14-
2A\	.	.	.	.	1e\	-m(us)	1a\	-mus
2AA/	-m(us)	.	2c\	.	.	.	.	.
!LO:TX:t=P:problem:kreska pseudotaktowa	!	!	!	!	!LO:TX:t=P:problem:kreska pseudotaktowa	!	!	!
1D\	Te.	.	2d,<\	.	1d\	Te	2fny,</	Te.
.	.	.	2.D/	Gra-	.	.	2.a\	Gra-
=15-	=15-	=15-	=15-	=15-	=15-	=15-	=15-	=15-
00r	.	.	.	.	2r	.	.	.
.	.	.	4D/	-ti-	.	.	4a\	-ti-
!	!	!	!LO:TX:t=P:problem:kreska pseudotaktowa	!	!	!	!LO:TX:t=P:problem:kreska pseudotaktowa	!
.	.	.	2D/	-as	2.d\	Gra-	2a\	-as
.	.	.	2G/	a-	.	.	2b-\	a-
.	.	.	.	.	4d\	-ti-	.	.
!	!	!	!	!	!LO:TX:t=P:problem:kreska pseudotaktowa	!	!	!
.	.	.	2F/	-gi-	2d\	-as	2a\	-gi-
=16-	=16-	=16-	=16-	=16-	=16-	=16-	=16-	=16-
.	.	.	2G/	-m(us)	2d\	a-	2b-\	-m(us)
!	!	!	!	!	!	!	!LO:TX:t=P:problem:kreska pseudotaktowa	!
.	.	.	2C/	Ti-	2e\	-gi-	2cc\	Ti-
!	!	!	!LO:TX:t=P:problem:kreska pseudotaktowa	!	!	!	!	!
.	.	.	1D/	-bi.	2f\	-m(us)	2a,<\	-bi
.	.	.	.	.	2f\	Ti-	1a\	p(ro)-
=17-	=17-	=17-	=17-	=17-	=17-	=17-	=17-	=17-
!	!	!	!LO:TX:t=P:problem:kreska pseudotaktowa	!	!	!	!	!
00r	.	.	1r	.	2d,<\	-bi	.	.
.	.	.	.	.	1d\	p(ro)-	2f/	-pter
.	.	.	2rF	.	.	.	1b-\	ma-
!	!	!	!	!	!LO:TX:t=P:problem:kreska pseudotaktowa	!	!	!
.	.	.	2G/	pro-	2B-/	-pter	.	.
=18-	=18-	=18-	=18-	=18-	=18-	=18-	=18-	=18-
.	.	.	2F/	-pter	2d\	ma-	2a,<\	-gnam
.	.	.	1F/	ma-	2c\	-gnam	1a\	glo-
.	.	.	.	.	2f\	glo-	.	.
!	!	!	!	!	!	!	!LO:TX:t=P:problem:kreska pseudotaktowa	!
.	.	.	2C/	-gna(m)	2e\	-ri-	2g/	-ri-
=19-	=19-	=19-	=19-	=19-	=19-	=19-	=19-	=19-
!LO:TX:t=P:problem:kreska pseudotaktowa	!	!	!	!	!	!	!	!
0r	.	.	2.D/	glo-	2A/	-am	1f/	-am
.	.	.	.	.	2.d\	.	.	.
.	.	.	4D/	-ri-	.	.	.	.
.	.	.	2A\	-a(m)	.	.	1e/	tu-
.	.	.	.	.	4c/	.	.	.
!	!	!	!LO:TX:t=P:problem:kreska pseudotaktowa	!	!LO:TX:t=P:problem:kreska pseudotaktowa	!	!	!
.	.	.	2A\	tu-	2c\	tu-	.	.
=20-	=20-	=20-	=20-	=20-	=20-	=20-	=20-	=20-
2rBB	.	.	2D,</	-am	2d,<\	am	2d,</	-am
1BB-/	Do-	.	1B-\	D(o-	1d\	D(o-	1f/	D(o-
!LO:TX:t=P:problem:kreska pseudotaktowa	!	!	!	!	!	!	!LO:TX:t=P:problem:kreska pseudotaktowa	!
2BB-/	-mi-	.	2B-\	-mi)-	2d\	-mi)-	2f/	-mi)-
=21-	=21-	=21-	=21-	=21-	=21-	=21-	=21-	=21-
2C/	-ne	.	2G,</	-ne	2c/	-ne	2e/	-ne
2C/	DE-	.	2G/	DE-	2c/	DE-	2e/	DE-
2D\	-(us)	.	2.F/	-(us)	2B-,</	-(us)	2d/	-(us)
!LO:TX:t=P:problem:kreska pseudotaktowa	!	!	!	!	!	!	!	!
2BB-/	Rex	.	.	.	2d\	Rex	1f/	Rex
.	.	.	4G/	.	.	.	.	.
=22-	=22-	=22-	=22-	=22-	=22-	=22-	=22-	=22-
2F\	.	.	2A\	Rex	2c/	cae-	.	.
2G\	cae-	.	1B-\	cae-	2B-/	.	2e/	cae-
1F\	-le-	.	.	.	1c\	-le-	1f/	-le-
!	!	!	!LO:TX:t=P:problem:kreska pseudotaktowa	!	!	!	!	!
!	!	!	!LO:SIC:v:t=custos B-	!	!	!	!	!
.	.	.	2A\	-le-	.	.	.	.
=23-	=23-	=23-	=23-	=23-	=23-	=23-	=23-	=23-
!LO:TX:t=P:problem:kreska pseudotaktowa	!	!	!LO:LB:g=original	!	!LO:TX:t=P:problem:kreska pseudotaktowa	!	!LO:TX:t=P:problem:kreska pseudotaktowa	!
1BB-/	-ſtis	.	2B-,<\	-stis	0.d\	-ſtis	0f/	-stis
.	.	.	2F/	DE-	.	.	.	.
2rBB	.	.	2F/	-us	.	.	.	.
!LO:TX:t=P:problem:kreska pseudotaktowa	!	!	!	!	!	!	!	!
2BB-/	DE-	.	2F/	Pa-	.	.	.	.
=24-	=24-	=24-	=24-	=24-	=24-	=24-	=24-	=24-
2BB-/	-(us)	.	2G/	-ter	.	.	00r	.
2BB-/	Pa-	.	2B-\	O-	.	.	.	.
2C/	-ter	.	4A/	.	0r	.	.	.
.	.	.	4G/	.	.	.	.	.
!LO:TX:t=P:problem:kreska pseudotaktowa	!	!	!	!	!	!	!	!
2D/	O-	.	4F/	.	.	.	.	.
.	.	.	4E/	.	.	.	.	.
=25-	=25-	=25-	=25-	=25-	=25-	=25-	=25-	=25-
2.BB-/	-mni-	.	2D/	.	.	.	.	.
.	.	.	1G/	-mni-	.	.	.	.
8AA/L	.	.	.	.	.	.	.	.
!LO:TX:t=P:problem:kreska pseudotaktowa	!	!	!	!	!	!	!	!
8GG/J	.	.	.	.	.	.	.	.
!	!	!	!	!	!LO:TX:t=P:problem:kreska pseudotaktowa	!	!	!
2AA/	.	.	.	.	1r	.	.	.
2AA/	-po-	.	2F/	-po-	.	.	.	.
=26-	=26-	=26-	=26-	=26-	=26-	=26-	=26-	=26-
!LO:TX:t=P:problem:rozdzielacz słów:global	!	!	!	!	!	!	!	!
2GG,</	-tens	.	2G,</	-tens	2r	.	2r	.
1G\	Do-	.	1d\	Do-	1g\	Do-	1b-\	Do-
!	!	!	!	!	!LO:TX:t=P:problem:kreska pseudotaktowa	!	!	!
!LO:TX:t=P:problem:kreska pseudotaktowa	!	!	!LO:TX:t=P:problem:kreska pseudotaktowa	!	!LO:SIC:v:t=custos f	!	!	!
2G\	-mi-	.	2d\	-mi-	2g\	-mi-	2b-\	-mi-
=27-	=27-	=27-	=27-	=27-	=27-	=27-	=27-	=27-
!	!	!	!	!	!LO:PB:g=original	!	!	!
2B-\	-ne	.	2d\	-ne	2f,<\	-ne	2b-\	-ne
!	!	!	!	!	!	!	!LO:TX:t=P:problem:kreska pseudotaktowa	!
!LO:TX:t=P:problem:kreska pseudotaktowa	!	!	!	!	!	!	!LO:SIC:v:t=custos a	!
2B-\	Fi-	.	2d\	Fi-	2f\	Fi-	2b-\	Fi-
!	!	!	!	!	!	!	!LO:LB:g=original	!
2F\	-li	.	2c,<\	-li	2f\	-li	2a,<\	-li
1BB-/	U-	.	1d\	U-	1f\	U-	1b-\	U-
=28-	=28-	=28-	=28-	=28-	=28-	=28-	=28-	=28-
!LO:TX:t=P:problem:kreska pseudotaktowa	!	!	!	!	!	!	!	!
2BB-/	-ni-	.	2d\	-ni-	2f\	-ni-	2b-\	-ni-
2E-X\	-ge-	.	2e\	-ge-	2g\	-ge-	2b-\	-ge-
2BB-/	-ni-	.	2d\	-ni-	2f\	-ni-	2b-\	-ni-
=29-	=29-	=29-	=29-	=29-	=29-	=29-	=29-	=29-
!LO:TX:t=P:problem:kreska pseudotaktowa	!	!	!LO:TX:t=P:problem:kreska pseudotaktowa	!	!LO:TX:t=P:problem:kreska pseudotaktowa	!	!LO:TX:t=P:problem:kreska pseudotaktowa	!
1F\	-te	.	1c\	-te	1f\	-te	1a\	-te
1.BB-/	Je-	.	1.d\	Je-	1.f\	Je-	1.b-\	Je-
=30-	=30-	=30-	=30-	=30-	=30-	=30-	=30-	=30-
2F\	-su	.	2c\	-su	2f\	-su	2a\	-su
1G\	X-	.	1B-\	x-	1d\	x-	1g\	x-
=31-	=31-	=31-	=31-	=31-	=31-	=31-	=31-	=31-
!LO:TX:t=P:problem:kreska pseudotaktowa	!	!	!LO:TX:t=P:problem:kreska pseudotaktowa	!	!LO:TX:t=P:problem:kreska pseudotaktowa	!	!	!
1D\	-te	.	1A\,<	-te.	1d\	-te	2f,</	-te
.	.	.	.	.	.	.	2.f/	Do-
!LO:LB:g=original	!	!	!	!	!	!	!	!
2.D\	Do-	.	2.A\	Do-	2r	.	.	.
.	.	.	.	.	.	.	4f/	-mi-
!	!	!	!	!	!	!	!LO:TX:t=P:problem:kreska pseudotaktowa	!
.	.	.	.	.	2.d\	Do-	2f/	-ne
!LO:TX:t=P:problem:kreska pseudotaktowa	!	!	!	!	!	!	!	!
4D\	-mi-	.	4A\	-mi-	.	.	.	.
=32-	=32-	=32-	=32-	=32-	=32-	=32-	=32-	=32-
2G,<\	-ne	.	2B-\	-ne	.	.	1g\	DE-
.	.	.	.	.	4d\	-mi-	.	.
2C/	DE-	.	1c\	DE-	2e\	-ne	.	.
2F\	-(us)	.	.	.	1f\	DE-	2a\	-(us)
!LO:TX:t=P:problem:kreska pseudotaktowa	!	!	!	!	!	!	!	!
2BB-/	Ag-	.	1d\	-(us)	.	.	1b-\	Ag-
=33-	=33-	=33-	=33-	=33-	=33-	=33-	=33-	=33-
4BB-/	.	.	.	.	1.f\	-(us)	.	.
4C/	.	.	.	.	.	.	.	.
!	!	!	!LO:TX:t=P:problem:kreska pseudotaktowa	!	!	!	!	!
4D/	.	.	2d\	Ag-	.	.	1a\	-n(us)
4Eny/	.	.	.	.	.	.	.	.
2F\	.	.	2c\	-n(us)	.	.	.	.
!	!	!	!	!	!	!	!LO:TX:t=P:problem:kreska pseudotaktowa	!
2C/	-n(us)	.	2.e\	De-	1g\	Ag-	[<2cc\	De-
=34-	=34-	=34-	=34-	=34-	=34-	=34-	=34-	=34-
*lig	*	*	*	*	*	*	*	*
!	!	!	!	!	!	!	!LO:N:xstem:cue	!
1G\	De-	.	.	.	.	.	4cc\]	.
.	.	.	4d\	.	.	.	4b-\	.
!	!	!	!	!	!LO:TX:t=P:problem:kreska pseudotaktowa	!	!	!
.	.	.	4c\	.	2e\	-n(us)	1b-\	.
.	.	.	4B-\	.	.	.	.	.
1F\	.	.	1c\	.	1f\	De-	.	.
.	.	.	.	.	.	.	2a\	.
*Xlig	*	*	*	*	*	*	*	*
=35-	=35-	=35-	=35-	=35-	=35-	=35-	=35-	=35-
!	!	!	!LO:TX:t=P:problem:kreska pseudotaktowa	!	!	!	!	!
!LO:TX:t=P:problem:kreska pseudotaktowa	!	!	!LO:SIC:v:t=custos d	!	!	!	!	!
1BB-/	-i.	.	0B-\	-i	2d,<\	-i	2b-,<\	-i
.	.	.	.	.	2.f\	Fi-	2.dd\	Fi-
2.BB-/	Fi-	.	.	.	.	.	.	.
.	.	.	.	.	4f\	-li-	4dd\	-li-
!	!	!	!	!	!LO:TX:t=P:problem:kreska pseudotaktowa	!	!LO:TX:t=P:problem:kreska pseudotaktowa	!
.	.	.	.	.	2f\	-(us)	2dd\	-us
4BB-/	-li-	.	.	.	.	.	.	.
=36-	=36-	=36-	=36-	=36-	=36-	=36-	=36-	=36-
!	!	!	!LO:LB:g=original	!	!	!	!	!
2C/	-(us)	.	2rc	.	4e\	Pa-	2cc\	Pa-
.	.	.	.	.	4d\	.	.	.
2GG/	Pa-	.	2.d\	Fi-	1g\	.	2b-\	.
!LO:TX:t=P:problem:kreska pseudotaktowa	!	!	!	!	!	!	!	!
1D\	-tris	.	.	.	.	.	2.a\	.
.	.	.	4d\	-li-	.	.	.	.
.	.	.	2d\	-us	2f\	.	.	.
!	!	!	!	!	!	!	!LO:TX:t=P:problem:kreska pseudotaktowa	!
.	.	.	.	.	.	.	4b-\	.
=37-	=37-	=37-	=37-	=37-	=37-	=37-	=37-	=37-
!	!	!	!	!	!LO:TX:t=P:problem:kreska pseudotaktowa	!	!	!
2r	.	.	2c\	Pa-	1g\,	-tris.	2cc\	.
2.G\	Fi-	.	1B-\	.	.	.	2dd\	.
*	*	*	*	*	*	*ij	*	*
.	.	.	.	.	2.d\	Fi-	1b-\	.
4G\	-li-	.	.	.	.	.	.	.
!LO:TX:t=P:problem:kreska pseudotaktowa	!	!	!	!	!	!	!	!
2G\	-(us)	.	2G/	.	.	.	.	.
.	.	.	.	.	4d\	-li-	.	.
=38-	=38-	=38-	=38-	=38-	=38-	=38-	=38-	=38-
2F\	Pa-	.	2c\	.	2f\	-us	2a\	.
2G\	.	.	4B-\	.	2e\	Pa-	1g\	.
.	.	.	8A\L	.	.	.	.	.
.	.	.	8G\J	.	.	.	.	.
1D\	.	.	1A\	.	1d\	.	.	.
.	.	.	.	.	.	.	2f#X/	.
=39-	=39-	=39-	=39-	=39-	=39-	=39-	=39-	=39-
0GG/;	-tris.	.	0Bn\;	-tris.	0d\;	-tris.	0g\;	-tris.
=40||	=40||	=40||	=40||	=40||	=40||	=40||	=40||	=40||
*M2/1	*	*	*M2/1	*	*M2/1	*Xij	*M2/1	*
*met(c|)	*	*	*met(c|)	*	*met(c|)	*	*met(c|)	*
!	!	!	!LO:TX:t=P:problem:kreska pseudotaktowa	!	!LO:TX:t=P:problem:kreska pseudotaktowa	!	!	!
!	!	!	!	!	!LO:LB:g=original	!	!	!
0r	.	.	0r	.	1r	.	1d/	Qui
.	.	.	.	.	1G/	Qui	1g\	tol-
=41-	=41-	=41-	=41-	=41-	=41-	=41-	=41-	=41-
!LO:TX:t=P:problem:kreska pseudotaktowa	!	!	!	!	!	!	!	!
1r	.	.	1D/	Qui	1d\	tol-	2fn/	-lis
.	.	.	.	.	.	.	2f/	pec-
1G\	Qui	.	1G/	tol-	2d\	-lis	1b-\	-ca-
.	.	.	.	.	2e\	pec-	.	.
=42-	=42-	=42-	=42-	=42-	=42-	=42-	=42-	=42-
!LO:TX:t=P:problem:kreska pseudotaktowa	!	!	!	!	!	!	!	!
1D\	tol-	.	2F/	-lis	1.f\	.	2a\	-ta
!	!	!	!LO:TX:t=P:problem:kreska pseudotaktowa	!	!	!	!	!
.	.	.	2F/	pec-	.	.	2.a\	mun-
2D\	-lis	.	1B-\	-ca-	.	.	.	.
.	.	.	.	.	.	.	8g/L	.
.	.	.	.	.	.	.	8f/J	.
!	!	!	!	!	!LO:TX:t=P:problem:kreska pseudotaktowa	!	!	!
2E\	pec-	.	.	.	2e\	-ca-	2g\	.
=43-	=43-	=43-	=43-	=43-	=43-	=43-	=43-	=43-
!	!	!	!	!	!	!	!LO:TX:t=P:problem:kreska pseudotaktowa	!
2.F\	-ca-	.	2.A/	.	2d\	-ta	1a\	-di
.	.	.	.	.	2c\	mun-	.	.
!LO:TX:t=P:problem:kreska pseudotaktowa	!	!	!	!	!	!	!	!
4E\	.	.	4G/	.	.	.	.	.
2D/	-ta	.	2F/	.	2B-/	-di	2r	.
2C/	mun-	.	2.E/	.	2.A/	mi-	2cc\	mi-
=44-	=44-	=44-	=44-	=44-	=44-	=44-	=44-	=44-
1BB-/	.	.	.	.	.	.	2dd\	-ſe-
.	.	.	4D/	-ta	4G/	.	.	.
.	.	.	2D/	mun-	2G/	-ſe-	2dd\	-re-
!	!	!	!LO:TX:t=P:problem:kreska pseudotaktowa	!	!	!	!	!
2AA,</	-di	.	1E/	-di	2A/	-re-	1cc\	-re
!LO:TX:t=P:problem:kreska pseudotaktowa	!	!	!	!	!LO:TX:t=P:problem:kreska pseudotaktowa	!	!	!
2AA/	mi-	.	.	.	2c\	-re	.	.
=45-	=45-	=45-	=45-	=45-	=45-	=45-	=45-	=45-
2BB-/	-ſe-	.	2rF	.	1d\	No-	1b-\	no-
2GG/	-re-	.	2G/	mi-	.	.	.	.
!LO:TX:t=P:problem:kreska pseudotaktowa	!	!	!	!	!	!	!	!
!LO:SIC:v:t=custos C	!	!	!	!	!	!	!LO:TX:t=P:problem:kreska pseudotaktowa	!
1D\	-re	.	2A/	-ſe-	1f\	.	1a\	-bis.
.	.	.	2F/	-re-	.	.	.	.
=46-	=46-	=46-	=46-	=46-	=46-	=46-	=46-	=46-
!LO:LB:g=original	!	!	!	!	!	!	!LO:TX:t=P:problem:kreska pseudotaktowa	!
2C/	no-	.	2G/	-re	2e\	.	0r	.
2BB-/	.	.	2B-\	no-	2d\	.	.	.
!	!	!	!	!	!LO:TX:t=P:problem:kreska pseudotaktowa	!	!	!
4C/	.	.	4A/	.	0c\	-bis.	.	.
4BB-/	.	.	4G/	.	.	.	.	.
4AA/	.	.	1G/	.	.	.	.	.
4GG/	.	.	.	.	.	.	.	.
=47-	=47-	=47-	=47-	=47-	=47-	=47-	=47-	=47-
!LO:TX:t=P:problem:kreska pseudotaktowa	!	!	!	!	!	!	!	!
1AA/	.	.	.	.	.	.	1a\	Qui
.	.	.	2F/	.	.	.	.	.
!	!	!	!LO:TX:t=P:problem:kreska pseudotaktowa	!	!	!	!	!
2GG,</	-bis	.	1G/	-bis.	2r	.	2b-\	tol-
!LO:TX:t=P:problem:kreska pseudotaktowa	!	!	!	!	!	!	!	!
2G\	Qui	.	.	.	2d\	Qui	2b-\	-lis
=48-	=48-	=48-	=48-	=48-	=48-	=48-	=48-	=48-
2G\	tol-	.	2r	.	2d\	tol-	2g\	pec-
!LO:TX:t=P:problem:kreska pseudotaktowa	!	!	!	!	!LO:TX:t=P:problem:kreska pseudotaktowa	!	!LO:TX:t=P:problem:kreska pseudotaktowa	!
2G\	-lis	.	2d\	Qui	2B-/	-lis	2b-\	-ca-
2D\	pec-	.	2d\	tol-	1f\	pec-	4a\	-ta
.	.	.	.	.	.	.	4g\	.
!	!	!	!LO:TX:t=P:problem:kreska pseudotaktowa	!	!	!	!	!
1F\	-ca-	.	2c\	-lis	.	.	4a\	.
.	.	.	.	.	.	.	4b-\	.
=49-	=49-	=49-	=49-	=49-	=49-	=49-	=49-	=49-
.	.	.	2A\	pec-	1.f\	-ca-	2cc\	.
2BB-/	-ta	.	1d\	-ca-	.	.	1b-\	mun-
*lig	*	*	*	*	*	*	*	*
1F\	mun-	.	.	.	.	.	.	.
.	.	.	2c\	-ta	2f\	-ta	1a\	.
=50-	=50-	=50-	=50-	=50-	=50-	=50-	=50-	=50-
1G\	.	.	1B-\	mun-	1d\	mun-	.	.
.	.	.	.	.	.	.	2g\	.
*Xlig	*	*	*	*	*	*	*	*
!	!	!	!LO:TX:t=P:problem:kreska pseudotaktowa	!	!	!	!	!
!LO:TX:t=P:problem:kreska pseudotaktowa	!	!	!LO:SIC:v:t=custos B-	!	!LO:TX:t=P:problem:kreska pseudotaktowa	!	!LO:TX:t=P:problem:kreska pseudotaktowa	!
1D\	-di	.	1A\	-di	1d\	-di	1a\	-di
=51-	=51-	=51-	=51-	=51-	=51-	=51-	=51-	=51-
!	!	!	!LO:LB:g=original	!	!	!	!	!
2rBB	.	.	2r	.	2r	.	2re	.
1D\	Suſ-	.	1A\	Suſ-	1d\	Suſ-	1f/	Suſ-
!LO:TX:t=P:problem:kreska pseudotaktowa	!	!	!LO:TX:t=P:problem:kreska pseudotaktowa	!	!	!	!	!
2BB-/	-ci-	.	2B-\	-ci-	2d\	-ci-	2f/	-ci-
=52-	=52-	=52-	=52-	=52-	=52-	=52-	=52-	=52-
2BB-/	-pe	.	2B-,<\	-pe	2d\	-pe	2f,</	-pe
1BB-/	de-	.	1d\	de-	1f\	de-	1b-\	de-
!LO:TX:t=P:problem:kreska pseudotaktowa	!	!	!	!	!LO:TX:t=P:problem:kreska pseudotaktowa	!	!	!
2F\	-pre-	.	2c\	-pre-	2f\	-pre-	2a\	-pre-
=53-	=53-	=53-	=53-	=53-	=53-	=53-	=53-	=53-
2G\	-ca-	.	2B-\	-ca-	2d\	-ca-	2g/	-ca-
2D\	-ti-	.	2A\	-ti-	2d\	-ti-	2f/	-ti-
!	!	!	!	!	!	!	!LO:TX:t=P:problem:kreska pseudotaktowa	!
!LO:TX:t=P:problem:kreska pseudotaktowa	!	!	!	!	!	!	!LO:SIC:v:t=custos f	!
1E\	-o-	.	1G/	-o-	2B-/	o-	1g\	-o-
.	.	.	.	.	2c/	-nem	.	.
=54-	=54-	=54-	=54-	=54-	=54-	=54-	=54-	=54-
!	!	!	!	!	!	!	!LO:LB:g=original	!
2D\	-nem	.	2A,<\	-nem	0d\	no-	2f,</	-nem
4GG/	no-	.	1B-\	no-	.	.	1g\	no-
!LO:TX:t=P:problem:kreska pseudotaktowa	!	!	!	!	!	!	!	!
4AA/	.	.	.	.	.	.	.	.
4BB-/	.	.	.	.	.	.	.	.
4C/	.	.	.	.	.	.	.	.
1D\	.	.	4A/	.	.	.	4f/	.
.	.	.	4G/	.	.	.	4e/	.
=55-	=55-	=55-	=55-	=55-	=55-	=55-	=55-	=55-
!	!	!	!	!	!LO:TX:t=P:problem:kreska pseudotaktowa	!	!	!
.	.	.	4A/	.	1d\	-ſtram	2f/	.
.	.	.	4D/	.	.	.	.	.
2GG/	.	.	1d\	.	.	.	2g/	.
!	!	!	!	!	!LO:LB:g=original	!	!LO:TX:t=P:problem:kreska pseudotaktowa	!
1AA/	.	.	.	.	2rA	.	1e/	.
!	!	!	!LO:TX:t=P:problem:kreska pseudotaktowa	!	!	!	!	!
.	.	.	2c\	.	1A/	Qui	.	.
=56-	=56-	=56-	=56-	=56-	=56-	=56-	=56-	=56-
!LO:TX:t=P:problem:kreska pseudotaktowa	!	!	!	!	!	!	!	!
1D\	-stram	.	2d,<\	-stram	.	.	2d,</	-ſtram
.	.	.	1D/	Qui	2A/	se-	1f/	Qui
00r	.	.	.	.	1.d\	-des	.	.
.	.	.	2D/	se-	.	.	2f/	se-
=57-	=57-	=57-	=57-	=57-	=57-	=57-	=57-	=57-
.	.	.	1G/	-des	.	.	1b-\	-des
.	.	.	.	.	2e\	ad	.	.
.	.	.	2F/	ad	2f\	dex-	2a\	ad
!	!	!	!	!	!LO:TX:t=P:problem:kreska pseudotaktowa	!	!	!
.	.	.	1B-\	dex-	2d\	-te-	1dd\	dex-
=58-	=58-	=58-	=58-	=58-	=58-	=58-	=58-	=58-
.	.	.	.	.	1f\	-ram	.	.
!	!	!	!LO:TX:t=P:problem:kreska pseudotaktowa	!	!	!	!LO:TX:t=P:problem:kreska pseudotaktowa	!
.	.	.	2A\	-te-	.	.	2cc\	-te-
!LO:TX:t=P:problem:kreska pseudotaktowa	!	!	!	!	!	!	!	!
1r	.	.	2G/	-ram	1g\	P(a-	2b-\	-ra(m)
.	.	.	2G/	P(a-	.	.	2b-\	P(a-
=59-	=59-	=59-	=59-	=59-	=59-	=59-	=59-	=59-
2rBB	.	.	2D,</	-t)ris,	2f,<\	-t)ris	2a,<\	-t)ris
!LO:TX:t=P:problem:kreska pseudotaktowa	!	!	!	!	!LO:TX:t=P:problem:kreska pseudotaktowa	!	!	!
2D\	mi-	.	2d\	mi-	2f\	mi-	2a\	mi-
2BB-/	-ſe-	.	2d\	-ſe-	2f\	-ſe-	2b-\	-ſe-
!	!	!	!LO:TX:t=P:problem:kreska pseudotaktowa	!	!	!	!	!
2BB-/	-re-	.	2d\	-re-	2f\	-re-	2b-\	-re-
=60-	=60-	=60-	=60-	=60-	=60-	=60-	=60-	=60-
2F\	-re	.	2c\	-re	2f\	-re	2a\	-re
!LO:TX:t=P:problem:kreska pseudotaktowa	!	!	!	!	!	!	!	!
2E\	no-	.	2G/	no-	2c\	no-	2g/	no-
!	!	!	!LO:TX:t=P:problem:kreska pseudotaktowa	!	!LO:TX:t=P:problem:kreska pseudotaktowa	!	!LO:TX:t=P:problem:kreska pseudotaktowa	!
2D,<\	-bis	.	1A\	-bis.	1d\	-bis.	0f/	-bis.
2.D\	Quo-	.	.	.	.	.	.	.
=61-	=61-	=61-	=61-	=61-	=61-	=61-	=61-	=61-
.	.	.	2.A\	Quo-	00r	.	.	.
4D/	-ni-	.	.	.	.	.	.	.
!LO:TX:t=P:problem:kreska pseudotaktowa	!	!	!	!	!	!	!	!
!LO:SIC:v:t=custos C	!	!	!	!	!	!	!	!
2D/	-am	.	.	.	.	.	.	.
.	.	.	4A\	-ni-	.	.	.	.
!LO:LB:g=original	!	!	!	!	!	!	!	!
2C/	Tu	.	2A/	-am	.	.	00r	.
2E\	so-	.	2G/	.	.	.	.	.
=62-	=62-	=62-	=62-	=62-	=62-	=62-	=62-	=62-
2D\	-l(us)	.	4B-\	Tu	.	.	.	.
.	.	.	4A\	.	.	.	.	.
4GG/	San-	.	4B-\	.	.	.	.	.
!LO:TX:t=P:problem:kreska pseudotaktowa	!	!	!	!	!	!	!	!
4AA/	.	.	4c\	.	.	.	.	.
4BB-/	.	.	1d\	so-	.	.	.	.
4C/	.	.	.	.	.	.	.	.
4D/	.	.	.	.	.	.	.	.
4E/	.	.	.	.	.	.	.	.
=63-	=63-	=63-	=63-	=63-	=63-	=63-	=63-	=63-
!	!	!	!	!	!LO:TX:t=P:problem:kreska pseudotaktowa	!	!	!
2F\	.	.	2c\	-l(us)	0r	.	.	.
1G\	.	.	2B-\	San-	.	.	.	.
!	!	!	!	!	!	!	!LO:TX:t=P:problem:kreska pseudotaktowa	!
.	.	.	1A\	.	.	.	1r	.
!LO:TX:t=P:problem:kreska pseudotaktowa	!	!	!	!	!	!	!	!
2F\	.	.	.	.	.	.	.	.
=64-	=64-	=64-	=64-	=64-	=64-	=64-	=64-	=64-
!	!	!	!LO:TX:t=P:problem:kreska pseudotaktowa	!	!	!	!	!
2G,<\	-ctus	.	1G/	-ctus.	2rA	.	2re	.
!LO:TX:t=P:problem:kreska pseudotaktowa	!	!	!	!	!LO:TX:t=P:problem:kreska pseudotaktowa	!	!	!
2G\	Tu	.	.	.	2B-/	Tu	2d/	Tu
!	!	!	!LO:TX:t=P:problem:kreska pseudotaktowa	!	!	!	!	!
!	!	!	!LO:SIC:v:t=custos B-	!	!	!	!	!
2G\	so-	.	0r	.	2B-/	so-	2e-X/	so-
!	!	!	!	!	!	!	!LO:TX:t=P:problem:kreska pseudotaktowa	!
2G\	-l(us)	.	.	.	2B-/	-l(us)	2d/	-l(us)
=65-	=65-	=65-	=65-	=65-	=65-	=65-	=65-	=65-
2F\	Do-	.	.	.	2A/	Do-	2d/	Do-
!LO:TX:t=P:problem:kreska pseudotaktowa	!	!	!	!	!	!	!	!
2E\	-mi-	.	.	.	2G/	-mi-	2c/	-mi-
!	!	!	!LO:PB:g=original	!	!	!	!	!
2D,<\	-n(us)	.	2r	.	2A,</	-n(us)	2d,</	-n(us)
1BB-/	Tu	.	1B-\	Tu	1f\	Tu	1dd\	Tu
=66-	=66-	=66-	=66-	=66-	=66-	=66-	=66-	=66-
!	!	!	!	!	!LO:TX:t=P:problem:kreska pseudotaktowa	!	!	!
2BB-/	so-	.	2B-\	so-	2f\	so-	2dd\	so-
2F\	-l(us)	.	2A\	-lus	2f\	-l(us)	2cc\	-l(us)
!LO:TX:t=P:problem:kreska pseudotaktowa	!	!	!LO:TX:t=P:problem:kreska pseudotaktowa	!	!	!	!	!
2F\	al-	.	2A\	al-	2f\	al-	2cc\	al-
=67-	=67-	=67-	=67-	=67-	=67-	=67-	=67-	=67-
2G\	-tiſ-	.	2B-\	-tiſ-	2d\	-tiſ-	2b-\	-tiſ-
2G\	-si-	.	2B-\	-si-	2e\	-si-	2b-\	-si-
!LO:TX:t=P:problem:kreska pseudotaktowa	!	!	!LO:TX:t=P:problem:kreska pseudotaktowa	!	!LO:TX:t=P:problem:kreska pseudotaktowa	!	!LO:TX:t=P:problem:kreska pseudotaktowa	!
1F\	-m(us)	.	1c\,	-m(us)	1f\	-m(us)	1a\	-m(us)
=68-	=68-	=68-	=68-	=68-	=68-	=68-	=68-	=68-
!	!	!	!LO:TX:t=P:problem:♮ above	!	!	!	!	!
1.E-X\	Je-	.	1.en\	Je-	1.g\	Je-	1.b-\	Je-
!LO:TX:t=P:problem:kreska pseudotaktowa	!	!	!	!	!	!	!	!
2BB-/	-su	.	2d\	-su	2f\	-su	2b-\	-su
=69-	=69-	=69-	=69-	=69-	=69-	=69-	=69-	=69-
1C/	x-	.	1c\	x-	1e\	x-	1g\	x-
2D,<\	-te	.	2A,<\	-te	2d\	-te	2f,</	-te
!	!	!	!LO:TX:t=P:problem:kreska pseudotaktowa	!	!	!	!	!
2BB-/	Cum	.	2B-\	Cum	4r	.	2f/	Cum
.	.	.	.	.	4d\	Cum	.	.
=70-	=70-	=70-	=70-	=70-	=70-	=70-	=70-	=70-
2BB-/	S(an)-	.	2B-\	S(an)-	2d\	San-	2f/	S(an)-
!	!	!	!	!	!LO:TX:t=P:problem:kreska pseudotaktowa	!	!	!
!LO:TX:t=P:problem:kreska pseudotaktowa	!	!	!	!	!LO:SIC:v:t=custos B-	!	!LO:TX:t=P:problem:kreska pseudotaktowa	!
2BB-/	-cto	.	2B-\	-cto	2d\	-cto	2f/	-cto
!	!	!	!	!	!LO:LB:g=original	!	!	!
2Eny\	Sp(i-	.	2G/	Spi-	2B-/	Spi-	2g/	Spi-
2C/	-ri)-	.	2G/	-ri-	2c\	-ri-	2eny/	-ri-
=71-	=71-	=71-	=71-	=71-	=71-	=71-	=71-	=71-
!	!	!	!	!	!	!	!LO:TX:t=P:problem:kreska pseudotaktowa	!
!	!	!	!	!	!	!	!LO:SIC:v:t=custos b-	!
2BB-,</	-tu	.	2.B-\	-tu	2d\	-tu	0f/	-tu
!LO:TX:t=P:problem:kreska pseudotaktowa	!	!	!	!	!	!	!	!
2B-\	in	.	.	.	2d\	in	.	.
.	.	.	8A/L	.	.	.	.	.
.	.	.	8G/J	.	.	.	.	.
!	!	!	!LO:TX:t=P:problem:kreska pseudotaktowa	!	!	!	!	!
2B-\	glo-	.	1F/	.	2d\	glo-	.	.
!LO:TX:t=P:problem:kreska pseudotaktowa	!	!	!	!	!	!	!	!
2A\	-ri-	.	.	.	2c/	-ri-	.	.
=72-	=72-	=72-	=72-	=72-	=72-	=72-	=72-	=72-
!	!	!	!	!	!	!	!LO:PB:g=original	!
2.G\	-a	.	2r	.	4B-/	-a	2r	.
.	.	.	.	.	4c/	.	.	.
.	.	.	2d\	in	4d/	.	2b-\	in
!	!	!	!	!	!LO:TX:t=P:problem:kreska pseudotaktowa	!	!	!
8F\L	.	.	.	.	4e/	.	.	.
8E\J	.	.	.	.	.	.	.	.
2D\	.	.	2d\	glo-	2f,<\	.	2b-\	glo-
!LO:TX:t=P:problem:kreska pseudotaktowa	!	!	!	!	!	!	!	!
!LO:SIC:v:t=custos G	!	!	!	!	!	!	!	!
2F\	De-	.	2c\	-ri-	2f\	De-	2a\	-ri-
=73-	=73-	=73-	=73-	=73-	=73-	=73-	=73-	=73-
!LO:LB:g=original	!	!	!	!	!	!	!	!
2G,<\	-i	.	4B-\	-a	2d\	-i	2g\	-a
.	.	.	4A\	.	.	.	.	.
2G\	Pa-	.	4B-\	.	2g\	Pa-	2b-\	De-
.	.	.	4c\	.	.	.	.	.
2D\	-tris	.	2d\	.	2f\	.	2a\	.
!LO:TX:t=P:problem:kreska pseudotaktowa	!	!	!	!	!	!	!LO:TX:t=P:problem:kreska pseudotaktowa	!
2E-X\	De-	.	2B-\	De-	2g\	-tris	2g\	-i
=74-	=74-	=74-	=74-	=74-	=74-	=74-	=74-	=74-
1.C/	-i	.	2A/	-i	1.e\	A-	2.cc\	Pa-
!	!	!	!LO:TX:t=P:problem:kreska pseudotaktowa	!	!	!	!	!
.	.	.	2G/	Pa-	.	.	.	.
.	.	.	.	.	.	.	4b-\	.
.	.	.	4c\	.	.	.	4a\	.
.	.	.	4B-\	.	.	.	4g\	.
2E-y\	P(a-	.	4A/	.	2c\	.	2.g/	-tris
.	.	.	4G/	.	.	.	.	.
=75-	=75-	=75-	=75-	=75-	=75-	=75-	=75-	=75-
!	!	!	!	!	!LO:TX:t=P:problem:kreska pseudotaktowa	!	!	!
2D\	-t)ris	.	2A/	.	1d\	-men	.	.
.	.	.	.	.	.	.	4f/	.
2D\	a-	.	2A/	-tris	.	.	4f/	A-
.	.	.	.	.	.	.	8g/L	.
.	.	.	.	.	.	.	8a/J	.
!LO:TX:t=P:problem:kreska pseudotaktowa	!	!	!	!	!	!	!	!
0GG/	-men	.	2.G/	A-	1re	.	4b-\	.
.	.	.	.	.	.	.	4a\	.
.	.	.	.	.	.	.	4b-\	.
!	!	!	!	!	!	!	!LO:TX:t=P:problem:kreska pseudotaktowa	!
.	.	.	4A/	.	.	.	4cc\	.
=76-	=76-	=76-	=76-	=76-	=76-	=76-	=76-	=76-
.	.	.	4B-\	.	2.d\	A-	2.dd\	.
.	.	.	4A\	.	.	.	.	.
.	.	.	4B-\	.	.	.	.	.
!	!	!	!LO:TX:t=P:problem:kreska pseudotaktowa	!	!	!	!	!
!	!	!	!LO:SIC:v:t=custos d	!	!	!	!	!
.	.	.	4c\	.	4e\	.	8cc\L	.
.	.	.	.	.	.	.	8b-\J	.
!	!	!	!LO:LB:g=original	!	!	!	!	!
1rA	.	.	4d\	.	4f\	.	2a\	.
.	.	.	8c\L	.	8e\L	.	.	.
.	.	.	8B-\J	.	8d\J	.	.	.
.	.	.	4B-\	.	4d\	.	1b-\	.
.	.	.	8c\L	.	8e\L	.	.	.
!	!	!	!LO:TX:t=P:problem:kreska pseudotaktowa	!	!	!	!	!
.	.	.	8d\J	.	8f\J	.	.	.
=77-	=77-	=77-	=77-	=77-	=77-	=77-	=77-	=77-
2rBB	.	.	2.e\	.	1g\	.	.	.
2.C/	A-	.	.	.	.	.	2.cc\	.
.	.	.	4d\	.	.	.	.	.
!	!	!	!	!	!LO:TX:t=P:problem:kreska pseudotaktowa	!	!	!
.	.	.	2c\	.	0g\	-men	.	.
4D/	.	.	.	.	.	.	8b-\L	.
.	.	.	.	.	.	.	8a\J	.
2.E-X\	.	.	2.B-\	.	.	.	4g\	.
!	!	!	!	!	!	!	!LO:TX:t=P:problem:kreska pseudotaktowa	!
.	.	.	.	.	.	.	4a\	.
=78-	=78-	=78-	=78-	=78-	=78-	=78-	=78-	=78-
.	.	.	.	.	.	.	1b-\	.
8D/L	.	.	4c\	.	.	.	.	.
8C/J	.	.	.	.	.	.	.	.
4BB-/	.	.	4d\	.	.	.	.	.
!LO:TX:t=P:problem:kreska pseudotaktowa	!	!	!LO:TX:t=P:problem:kreska pseudotaktowa	!	!	!	!	!
4C/	.	.	4e\	.	.	.	.	.
!	!	!	!	!	!LO:TX:t=P:problem:kreska pseudotaktowa	!	!	!
4D\	.	.	2.f\	.	0r	.	2a,<\	-men
4C\	.	.	.	.	.	.	.	.
4D\	.	.	.	.	.	.	2.a\	A-
!LO:TX:t=P:problem:kreska pseudotaktowa	!	!	!	!	!	!	!	!
4Eny\	.	.	8e\L	.	.	.	.	.
.	.	.	8d\J	.	.	.	.	.
=79-	=79-	=79-	=79-	=79-	=79-	=79-	=79-	=79-
4F\	.	.	2c\	.	.	.	.	.
8E\L	.	.	.	.	.	.	8g/L	.
8D\J	.	.	.	.	.	.	8f/J	.
4D\	.	.	2.d\	.	.	.	4f/	.
8E\L	.	.	.	.	.	.	8g/L	.
!	!	!	!	!	!	!	!LO:TX:t=P:problem:kreska pseudotaktowa	!
8F\J	.	.	.	.	.	.	8a/J	.
1G\	.	.	.	.	2.d\	A-	4b-\	.
.	.	.	8c\L	.	.	.	8a\L	.
.	.	.	8B-\J	.	.	.	8g\J	.
.	.	.	4B-\	.	.	.	4g\	.
.	.	.	8c\L	.	8e\L	.	8a\L	.
!	!	!	!LO:TX:t=P:problem:kreska pseudotaktowa	!	!	!	!	!
.	.	.	8d\J	.	8f\J	.	8b-\J	.
=80-	=80-	=80-	=80-	=80-	=80-	=80-	=80-	=80-
2C/	.	.	2e\	.	2g\	.	2cc\	.
!LO:TX:t=P:problem:kreska pseudotaktowa	!	!	!	!	!	!	!	!
2D\	.	.	2.d\	.	2.f\	.	2b-\	.
2F\	.	.	.	.	.	.	2a\	.
.	.	.	4c\	.	4e\	.	.	.
1G\	.	.	4B-\	.	4d\	.	2.b-\	.
.	.	.	4A\	.	4c\	.	.	.
=81-	=81-	=81-	=81-	=81-	=81-	=81-	=81-	=81-
.	.	.	2B-\	.	2d\	.	.	.
.	.	.	.	.	.	.	4a\	.
!	!	!	!	!	!LO:TX:t=P:problem:♭ above	!	!	!
2C/	.	.	2c\	.	2e-X\	-men	1g\	.
*	*	*	*	*	*	*ij	*	*
1D\	.	.	1A\	.	1d\	A-	.	.
.	.	.	.	.	.	.	2f#X/	.
=82-	=82-	=82-	=82-	=82-	=82-	=82-	=82-	=82-
0GG/;	-men.	.	0Bn\;	-men.	0d\;	-men	0g\;	-men.
*	*	*	*	*	*	*Xij	*	*
==	==	==	==	==	==	==	==	==
*-	*-	*-	*-	*-	*-	*-	*-	*-
!!!RDF**kern: > = above
!!!RDF**kern: < = below
!!!system-decoration: [(s1,s2,s3,s4)]
!!!ENC: Andrzej Kubiczek
!!!END: 2021-03-02
!!!EED: Andrzej Borzym
!!!EST: 2021-03-17
